X:0253
M:6/8
L:1/8
Q:3/8=120
K:D
g|f2d edB| ABd     d2g| f2d     edB|ABd   Te2
g|f2d edB|(f/g/a)f g2e|(f/g/a)f g2e|fdd    d2:|

